X:1
T:Title
L:1/8
Q:1/4=103
M:6/8
K:C
V:1 treble nm="Church Organ, Staff"
V:1
 GcB A G2 | G E2 FGB | A A2- A/ z/ G2 | FEF G A2 | AA^G AcB | A G2- G G2 | GcB A G2 | EE^F GAG | %8
w: By~F.~R.~Rickman * * * *||||||||
 ^F A2- A/ z/ G2 | G G2 GBA | G B2- B/ z/ d2 | c A2- A/ z/ B2- | B A2- A G2- | G c2- c/ z/ cB | %14
w: ||||||
 A G2- G/ z/ E2- | EFF F B2 | A G2- G3- | G e2- e/ z/ dc | B d2- d/ z/ c2 | c A2 AcB | %20
w: ||||||
 A A2- A G2- | G c2- c/ z/ cB | A G2- G/ z/ E2- | EE_E =E A2 | G F2- F F2 | F D2 E F2 | %26
w: ||||||
 G A2 ^G A2 | c c2 GAG | F E2- E E2 | E c2 B c2 | c e2- e/ z/ cB | A G2 c e2 | d c2 c c2 |] %33
w: |||||||

